!!!COM: Palestrina, Giovanni Perluigi da
!!!OPR: Missa Sanctorum meritis
!!!OMD: Sanctus
!!!OTL: Pleni
**kern	**kern	**kern
*Itenor	*Icalto	*Icant
!Tenor	!Altus	!Cantus
*clefGv2	*clefG2	*clefG2
*k[]	*k[]	*k[]
*E:phr	*E:phr	*E:phr
*M4/2	*M4/2	*M4/2
=35	=35	=35
0A	0r	0r
=36	=36	=36
1G	1r	0r
2A	[1e	.
[2c	.	.
=37	=37	=37
2c]	1e]	0r
4B	.	.
4A	.	.
1B	1d	.
=38	=38	=38
2.E	2e	0r
.	1g	.
4F	.	.
2G	.	.
2A	4f	.
.	4e	.
=39	=39	=39
2D	2f	0a
2C	1e	.
1F	.	.
.	2d	.
=40	=40	=40
2E	1e	1g
2E	.	.
2F	2.A	2a
[2A	.	[2cc
.	4B	.
=41	=41	=41
2A]	2c	2cc]
4G	2d	4b
4F	.	4a
2.E	1G	1b
4D	.	.
=42	=42	=42
1C	2r	2.e
.	1g	.
.	.	4f
1r	.	2g
.	4f	2a
.	4e	.
=43	=43	=43
1r	1f	2d
.	.	1dd
[1A	1e	.
.	.	4cc
.	.	4b
=44	=44	=44
1A]	2A	1cc
.	2.e	.
1G	.	1b
.	4d	.
.	2B	.
=45	=45	=45
2A	2c	2.e
1c	2A	.
.	.	4f
.	1e	2g
4B	.	[2a
4A	.	.
=46	=46	=46
1B	1r	2a]
.	.	4g
.	.	4f
2.E	[1e	2.g
4F	.	4f
=47	=47	=47
2G	1e]	4e
.	.	4d
2A	.	2c
2D	1d	1f
[2d	.	.
=48	=48	=48
2d]	2e	2.e
4c	1g	.
4B	.	4d
1c	.	1e
.	4f	.
.	4e	.
=49	=49	=49
2d	1.f	4d
.	.	4e
4D	.	4f
4E	.	4g
4F	.	4a
4G	.	4b
[2A	4e	[2cc
.	4d	.
=50	=50	=50
4A]	1e	4cc]
4B	.	4b
1c	.	2g
.	2e	2a
4B	4d	[2b
4A	4c	.
=51	=51	=51
2G	2d	2b]
2A	2c	1a
1E	1B	.
.	.	2g#
=52	=52	=52
2r	2.A	1a
1A	.	.
.	4B	.
.	4c	2r
.	4d	.
2A	4e	[2a
.	4c	.
=53	=53	=53
2.F	1f	2a]
.	.	2a
4G	.	.
4A	1e	2.cc
4B	.	.
2c	.	.
.	.	4b
=54	=54	=54
1d	1r	4a
.	.	4g
.	.	2f
2.c	2r	2e
.	[2e	4c
4B	.	4d
=55	=55	=55
2A	2e]	4e
.	.	4f
4G	2e	4g
4F	.	4a
[1E	2.g	4b
.	.	4cc
.	.	2b
.	4f	.
=56	=56	=56
2E]	4e	2g
.	4d	.
2F	2c	2a
[1G	2B	2d
.	4G	[2dd
.	4A	.
=57	=57	=57
1G]	4B	4dd]
.	4c	4cc
.	4d	2b
.	4e	.
1r	2f	2a
.	2g	[2dd
=58	=58	=58
1.A	1e	2dd]
.	.	4cc
.	.	4b
.	2r	2.cc
2A	[2e	.
.	.	8b
.	.	8a
=59	=59	=59
2.c	2e]	1g
.	2e	.
4B	.	.
4A	2.c	1r
4G	.	.
2F	.	.
.	4d	.
=60	=60	=60
1E	4e	1r
.	4f	.
.	2g	.
2D	2f	[1a
2C	2e	.
=61	=61	=61
1D	2.f	2a]
.	.	2a
.	4e	.
2.D	4d	2.f
.	4c	.
.	2d	.
4E	.	4g
=62	=62	=62
4F	2.A	4a
4G	.	4b
1A	.	1cc
.	4B	.
.	2c	.
4G	2d	4b
4F	.	4a
=63	=63	=63
0E	1e	2.g
.	.	4a
.	2r	2b
.	[2e	2cc
=64	=64	=64
2r	2e]	1b
1E	2e	.
.	2.g	2r
2E	.	[2e
.	4f	.
=65	=65	=65
2.C	4e	2e]
.	4d	.
.	1c	2e
4D	.	.
4E	.	2.g
4F	.	.
2G	2B	.
.	.	4f
=66	=66	=66
1A	1c	4e
.	.	4d
.	.	1c
1G	1d	.
.	.	2B
=67	=67	=67
2.C	1.e	4c
.	.	4d
.	.	4e
4D	.	4f
4E	.	4g
4F	.	4a
[2G	4d	[2b
.	4c	.
=68	=68	=68
4G]	4d	4b]
4A	4c	4a
2F	4c	1a
.	8B	.
.	8A	.
1E	1B	.
.	.	2g#
=69	=69	=69
0A	0A	0a
*-	*-	*-
!!!CDT: 1525/^1526/-1594/2/2
!!!OCY: Italia
!!!AGN: Mass (Paraphrase)
!!!AST: renaissance, vocal
!!!ASW: Hymn
!!!PWK: Masses, Book 7
!!!RNB: Cadence finals: A,C
!!!YOR: Le Opere Complete, v. 23, p. 30
!!!YOO: Rome, Italy: Fratelli Scalera
!!!END: 1992//
!!!EED: John Miller
!!!YEC: Copyright 2000, John Miller
!!!YEN: United States of America
!!!YEM: Rights to all derivative electronic formats reserved.
!!!YEM: Refer to licensing agreement for further details.
!!!YEM: This file must be accompanied by the licensing agreement.
!!!YEM: A copy of the licensing agreement may be found at http://www.music-cog.ohio-state.edu/HumdrumDatabases/Palestrina/license.txt
!!!EMD: converted to Humdrum by Bret Aarden
